dist/svgs/crypto-icons/icons/strat.svg

<?xml version="1.0" encoding="UTF-8" standalone="yes"?>
<svg xmlns="http://www.w3.org/2000/svg" xmlns:xlink="http://www.w3.org/1999/xlink" width="512px" height="512px" viewBox="0 0 384 384" version="1.1">
  <g id="surface1">
    <path style=" stroke:none;fill-rule:nonzero;fill:rgb(0%,0%,0%);fill-opacity:1;" d="M 376.546875 192.15625 C 371.085938 188.886719 363.726562 189.140625 356.863281 192.824219 C 355.726562 193.433594 198.96875 280.71875 192.847656 284.441406 C 191.71875 285.128906 191.15625 285.476562 188.785156 284.183594 C 186.214844 282.78125 29.058594 194.976562 25.671875 193.113281 C 24.175781 192.289062 22.183594 190.816406 22.183594 187.578125 L 22.183594 161.375 C 62.101562 183.757812 173.277344 246.109375 178.949219 249.289062 C 182.644531 251.359375 186.8125 252.457031 191.007812 252.457031 C 195.335938 252.457031 199.71875 251.289062 203.691406 249.089844 C 236.5 230.890625 370.28125 156.699219 374.324219 154.460938 C 380.382812 151.101562 384.117188 145.054688 384.0625 138.679688 C 384.015625 132.683594 380.65625 127.328125 375.078125 124.351562 C 371.835938 122.625 283.132812 73.410156 201.207031 27.929688 C 197.898438 26.097656 194.441406 25.164062 190.929688 25.164062 C 187.6875 25.164062 184.5 25.996094 181.671875 27.578125 C 123.886719 59.980469 66.101562 92.386719 8.316406 124.792969 C 3.101562 127.714844 -0.0078125 133.078125 0 139.136719 C 0 139.15625 0.00390625 139.175781 0.00390625 139.195312 L 0 139.195312 L 0 187.578125 C 0 198.210938 5.460938 207.3125 14.980469 212.546875 C 18.304688 214.378906 175.492188 302.199219 178.167969 303.65625 C 189.402344 309.785156 198.621094 306.898438 204.367188 303.402344 C 208.015625 301.203125 333.191406 231.273438 361.878906 215.382812 L 361.878906 239.6875 C 361.878906 239.984375 361.878906 240.882812 357.59375 243.582031 C 352.039062 247.019531 201.488281 331.683594 194.367188 335.542969 C 191.324219 337.195312 190.945312 336.972656 189.695312 336.253906 C 184.28125 333.144531 19.816406 240.765625 12.816406 236.832031 L 1.953125 256.175781 C 3.667969 257.140625 173.320312 352.4375 178.644531 355.492188 C 183.132812 358.070312 187.320312 359.019531 191.109375 359.019531 C 196.671875 359.019531 201.378906 356.976562 204.933594 355.050781 C 206.171875 354.378906 363.222656 266.261719 369.410156 262.359375 C 373.417969 259.835938 384.066406 253.121094 384.066406 239.6875 L 384.066406 206.179688 C 384.0625 200.128906 381.324219 195.011719 376.546875 192.15625 Z M 191.132812 47.707031 C 226.019531 67.078125 326 122.570312 356.082031 139.210938 C 326.832031 155.429688 221.53125 213.828125 192.933594 229.6875 C 191.746094 230.34375 190.753906 230.472656 189.804688 229.941406 C 183.871094 226.609375 62.546875 158.570312 27.988281 139.195312 C 59.570312 121.484375 165.898438 61.855469 191.132812 47.707031 Z M 191.132812 47.707031 "/>
  </g>
</svg>

<svg xmlns="http://www.w3.org/2000/svg" viewBox="0 0 384 384"><path d="M376.547 192.156c-5.461-3.27-12.82-3.015-19.684.668-1.136.61-157.894 87.895-164.015 91.617-1.13.688-1.692 1.036-4.063-.257-2.57-1.403-159.726-89.207-163.113-91.07-1.496-.825-3.488-2.298-3.488-5.536v-26.203c39.918 22.383 151.093 84.734 156.765 87.914a24.732 24.732 0 0012.059 3.168c4.328 0 8.71-1.168 12.683-3.367 32.809-18.2 166.59-92.39 170.633-94.63 6.059-3.358 9.793-9.405 9.738-15.78-.046-5.996-3.406-11.352-8.984-14.328-3.242-1.727-91.945-50.942-173.871-96.422-3.309-1.832-6.766-2.766-10.277-2.766-3.243 0-6.43.832-9.258 2.414C123.887 59.98 66.102 92.387 8.316 124.793 3.102 127.715-.008 133.078 0 139.137c0 .02.004.039.004.058H0v48.383c0 10.633 5.46 19.734 14.98 24.969 3.325 1.832 160.512 89.652 163.188 91.11 11.234 6.128 20.453 3.241 26.2-.255 3.648-2.199 128.823-72.129 157.51-88.02v24.305c0 .297 0 1.196-4.284 3.895-5.555 3.438-156.106 88.102-163.227 91.961-3.043 1.652-3.422 1.43-4.672.71-5.414-3.108-169.879-95.487-176.879-99.421L1.953 256.176c1.715.965 171.367 96.262 176.692 99.316 4.488 2.578 8.675 3.528 12.464 3.528 5.563 0 10.27-2.043 13.825-3.97 1.238-.671 158.289-88.788 164.476-92.69 4.008-2.524 14.656-9.239 14.656-22.673V206.18c-.003-6.051-2.742-11.168-7.52-14.024zM191.133 47.707C226.02 67.078 326 122.57 356.082 139.211c-29.25 16.219-134.55 74.617-163.148 90.476-1.188.657-2.18.786-3.13.254-5.933-3.332-127.257-71.37-161.816-90.746 31.582-17.71 137.91-77.34 163.145-91.488zm0 0"/></svg>
